X: 35646
T: Sailor On The Rock, The
R: reel
M: 4/4
K: Dmajor
dfed BcdB|AD (3FED FAAB|defe B2dB|ABdf gfef|
dfed BcdB|AD (3FED FAA2|dfed B2dB|ABdf ~e2d2||
faag fddf|gfga beeg|faaf gedB|ABdf ~e2d2|
faag fddf|gfga bgeg|agfe dcBc|ABde gfef||

